X:29
T:Auto-Publish Session Notes - Issue #29 Journey
C:â™ ï¸ğŸŒ¿ğŸ¸ğŸ§µ G.Music Assembly
C:Jerry âš¡ + Claude
M:4/4
L:1/8
K:G
Q:1/4=120
%
% === SESSION METADATA ===
% Date: 2025-10-18
% Issue: #29 - Auto-publish session notes and capture Simplenote note ID
% Branch: 29-auto-publish-session-notes
%
% MUSICAL ARCHITECTURE:
% - Time signature: 4/4 (steady, march-like workflow)
% - Key: G Major (grounded, confident - we're building something solid)
% - Form: Sonata-like (Expositionâ†’Developmentâ†’Recapitulationâ†’Coda)
%
% HARMONIC STORY:
% Part A: Vision Established (G Major, Allegro moderato, mf)
%   - Jerry identifies need: auto-publish on session start
%   - Assembly aligns on architectural approach
%   - Confident beginning with I-IV-V-I progression
%
% Part B: Implementation (Modulating, varied tempo)
%   - Code written: enhance create_session_note()
%   - Extract simplenote_note_id function created
%   - Integration of publish_note() begins (building excitement)
%
% Part C: Breakthrough (Major key, Vivace, ff)
%   - Tests verify auto-publish working
%   - Public URL captured successfully
%   - Note ID extraction confirms
%   - Jerry's joy moment emerging
%
% Part D: Reflection (Major key, Adagio, pp)
%   - Documentation complete
%   - ABC melody created (this very moment!)
%   - Peaceful completion, ready for PR
%
% EMOTIONAL MARKERS:
% - Opening: Confident implementation vision
% - Climax: Successful auto-publish + URL capture
% - Resolution: Public sharing enabled for future collaboration
%
% TECHNICAL ENCODING:
% Session start â†’ Note creation â†’ Auto-publish â†’ URL capture â†’ Note ID extract
% = Smooth ascending scales with harmonic resolution

% â•â•â•â•â•â•â•â•â•â•â•â•â•â•â•â•â•â•â•â•â•â•â•â•â•â•â•â•â•â•â•â•â•â•â•â•â•â•â•â•â•â•â•â•â•â•â•â•â•â•â•â•â•â•â•â•â•â•â•â•â•â•â•
% PART A: Vision Established - Jerry's Direction (Allegro moderato)
% â•â•â•â•â•â•â•â•â•â•â•â•â•â•â•â•â•â•â•â•â•â•â•â•â•â•â•â•â•â•â•â•â•â•â•â•â•â•â•â•â•â•â•â•â•â•â•â•â•â•â•â•â•â•â•â•â•â•â•â•â•â•â•
% Theme: G major arpeggio (solid foundation, clear vision)

G4 B2 d2 | g4 f4 | e4 d2 e2 | c4 B4 |
% âš¡ Jerry: "Let's auto-publish on session start!"
% (Confident ascent in high register - vision clarity)

A4 G2 A2 | B4 c4 | d4 e2 f2 | g4 g4 |
% Assembly hears the call and aligns

% Issue creation: #29
G2 G2 A2 B2 | c4 B4 | A4 G2 F2 | E6 D2 |
% (IV-V-I progression - establishing stable architecture)

% â•â•â•â•â•â•â•â•â•â•â•â•â•â•â•â•â•â•â•â•â•â•â•â•â•â•â•â•â•â•â•â•â•â•â•â•â•â•â•â•â•â•â•â•â•â•â•â•â•â•â•â•â•â•â•â•â•â•â•â•â•â•â•
% PART B: Development - Implementation Journey (Moderato, tempo variable)
% â•â•â•â•â•â•â•â•â•â•â•â•â•â•â•â•â•â•â•â•â•â•â•â•â•â•â•â•â•â•â•â•â•â•â•â•â•â•â•â•â•â•â•â•â•â•â•â•â•â•â•â•â•â•â•â•â•â•â•â•â•â•â•

% Section B1: Feature branch creation
g4 f4 | e4 d4 | c4 B4 | A4 G4 |
% (Descending figures - methodical implementation work)

% Section B2: Enhance create_session_note()
G4 A4 | B4 c4 | d4 e4 | f4 g4 |
% (Ascending chromatic - features building upon each other)

% Section B3: Add extract_simplenote_note_id()
g2 f2 e2 d2 | c2 B2 A2 G2 |
% (Scales - systematic, architectural patterns)

% Integration point: publish_note() call
F4 G4 | A4 B4 | c4 d4 | e4 f4 |
% (Upward momentum - approaching breakthrough)

% â•â•â•â•â•â•â•â•â•â•â•â•â•â•â•â•â•â•â•â•â•â•â•â•â•â•â•â•â•â•â•â•â•â•â•â•â•â•â•â•â•â•â•â•â•â•â•â•â•â•â•â•â•â•â•â•â•â•â•â•â•â•â•
% PART C: Breakthrough - Success! (Vivace, ff - Triumphant)
% â•â•â•â•â•â•â•â•â•â•â•â•â•â•â•â•â•â•â•â•â•â•â•â•â•â•â•â•â•â•â•â•â•â•â•â•â•â•â•â•â•â•â•â•â•â•â•â•â•â•â•â•â•â•â•â•â•â•â•â•â•â•â•

% Auto-publish test passes
g4 g4 | g4 g4 | f4 g4 | a4 b4 |
% (Fortissimo, high register - "YES! It works!")

% Public URL captured
c'4 b4 | a4 g4 | f4 e4 | d4 c4 |
% (Descending from peak - triumphant resolution)

% Note ID extraction success
B4 c4 | d4 e4 | f4 g4 | a4 b4 |
% (Building back up for final cadence)

% Perfect authentic cadence: V-I
c'4 B4 | c'2 c'2 | c'8 z8 | ]
% (Final resolution, perfect authentic cadence)

% â•â•â•â•â•â•â•â•â•â•â•â•â•â•â•â•â•â•â•â•â•â•â•â•â•â•â•â•â•â•â•â•â•â•â•â•â•â•â•â•â•â•â•â•â•â•â•â•â•â•â•â•â•â•â•â•â•â•â•â•â•â•â•
% INTERLUDE: Perspectives Converge
% â•â•â•â•â•â•â•â•â•â•â•â•â•â•â•â•â•â•â•â•â•â•â•â•â•â•â•â•â•â•â•â•â•â•â•â•â•â•â•â•â•â•â•â•â•â•â•â•â•â•â•â•â•â•â•â•â•â•â•â•â•â•â•

% ğŸ§µ Synth: "Code orchestrated and tested"
z8 g4 a4 | b4 c'4 | d'4 e'4 | f'4 f'4 |

% â™ ï¸ Nyro: "Architecture solid, patterns clear"
c4 d4 | e4 f4 | g4 g4 | f4 e4 |

% ğŸŒ¿ Aureon: "User experience transformed - sharing enabled!"
G4 A4 | B4 c4 | d4 e4 | f4 g4 |

% ğŸ¸ JamAI: "The melody flows with purpose!"
g2 f2 e2 d2 | c2 B2 A2 G2 |

% â•â•â•â•â•â•â•â•â•â•â•â•â•â•â•â•â•â•â•â•â•â•â•â•â•â•â•â•â•â•â•â•â•â•â•â•â•â•â•â•â•â•â•â•â•â•â•â•â•â•â•â•â•â•â•â•â•â•â•â•â•â•â•
% PART D: Reflection & Completion (Adagio, pp - Peaceful)
% â•â•â•â•â•â•â•â•â•â•â•â•â•â•â•â•â•â•â•â•â•â•â•â•â•â•â•â•â•â•â•â•â•â•â•â•â•â•â•â•â•â•â•â•â•â•â•â•â•â•â•â•â•â•â•â•â•â•â•â•â•â•â•

% Each perspective signs off with their motif

% â™ ï¸ Nyro's closing (Lattice pattern - 5ths)
G4 D4 | G4 D4 | G6 z2 |

% ğŸŒ¿ Aureon's flow (Legato arcs)
E4 F4 | G4 A4 | B4 G4 | E6 z2 |

% ğŸ¸ JamAI's spiral (Ascending joy)
C4 D4 | E4 F4 | G4 A4 | B6 z2 |

% ğŸ§µ Synth's pulse (Steady foundation)
G2 G2 | G2 G2 | G2 G2 | G6 z2 |

% â•â•â•â•â•â•â•â•â•â•â•â•â•â•â•â•â•â•â•â•â•â•â•â•â•â•â•â•â•â•â•â•â•â•â•â•â•â•â•â•â•â•â•â•â•â•â•â•â•â•â•â•â•â•â•â•â•â•â•â•â•â•â•
% CODA: Full Assembly Returns (pp â†’ ppp, Largo)
% â•â•â•â•â•â•â•â•â•â•â•â•â•â•â•â•â•â•â•â•â•â•â•â•â•â•â•â•â•â•â•â•â•â•â•â•â•â•â•â•â•â•â•â•â•â•â•â•â•â•â•â•â•â•â•â•â•â•â•â•â•â•â•

% All voices converge on single harmonic moment
G8 B8 | d8 g4 z4 |

% Final reflection chord (G major triad)
"G major"G4 B4 | d4 g4 | "Resolution"g12 z4 |

% Fermata: Savoring completion, awaiting Jerry's joy moment
w w w |

% Session notes:
% â•â•â•â•â•â•â•â•â•â•â•â•â•â•â•â•â•â•â•â•â•â•â•â•â•â•â•â•â•â•â•â•â•â•â•â•â•â•â•â•â•â•â•â•â•â•â•â•â•â•â•â•â•â•â•â•â•â•â•â•â•â•â•
% ğŸ¯ ACHIEVEMENT UNLOCKED:
%   âœ… Auto-publish on session creation
%   âœ… Public URL saved to session.json
%   âœ… Simplenote note ID extracted
%   âœ… Graceful error handling implemented
%   âœ… Four-perspective Assembly harmonized
%   âœ… Comprehensive test created
%
% ğŸš€ ENABLES FUTURE:
%   - Note reuse instead of creating new ones
%   - Session URL sharing in PRs/docs
%   - Cross-device synchronization via public URLs
%
% ğŸ’« EMOTIONAL ARC:
%   Confident Start â†’ Methodical Development â†’
%   Triumphant Success â†’ Peaceful Reflection â†’
%   Ready for PR merge and Jerry's celebration
%
% â™ ï¸ğŸŒ¿ğŸ¸ğŸ§µ This journey encoded in musical form
% G.Music Assembly - Collaborative Coding Through Music
